!!!OTL-incipit: ICH FAHR DAHIN, WEIL ES MUSS SEYN
!!!ARE: Europa, Mitteleuropa, Deutschland
!!!SCT: Z0269
!!!TXL: @@DE
!!!YEM: Copyright 1995, estate of Helmut Schaffrath.
**kern	**text
*ICvox	*
!! Mixed meters:  3/4; 4/4
*M3/4	*
*k[b-e-]	*
*B-:	*
!LO:TX:a:t=Altdeutſch.	!
!LO:TX:a:t=Aus dem funfʒehnten Jahrhundert.	!
{4f	Jch
=1	=1
2b-/	fahr
4b-/	da-
=2	=2
2f	-hin,
4ee-	weil
=3	=3
2dd	es
4cc	muß
=4	=4
2b-}	ſeyn,
{4b-	ich
=5	=5
2a	ſchei-
4b-	-de
=6	=6
2cc	von
4f	der
=7	=7
2a	Lieb-
4g	-ſten
=8	=8
2f}	mein,
{4f	doch
=9	=9
2b-	laß
4cc	ich
=10	=10
2dd	ihr
4cc	das
=11	=11
2ee-	Her-
4dd	-ʒe
=12	=12
2b-}	mein,
{4b-	die-
=13	=13
2dd	-weil
4ee-	ich
=14	=14
2ff	leb',
4gg	ſo
=15	=15
2ff	ſoll
8ddL	es
8b-J	.
=16	=16
2cc}	ſeyn,
{4b-	ich
=17	=17
*M4/4	*
*met(c)	*
(2a	fahr,
4b-/)	.
4b-	ich
=18	=18
4dd	fahr,
4dd	ich
4cc	fahr
4cc	da-
=19	=19
2.b-}	-hin.
==	==
!!!AGN: Lyrisches Lied, Romanze, Abschieds - Lied
!!!ONB: ESAC (Essen Associative Code) Database: ZUCCAL
!!!AMT: irregular
!!!AIN: vox
!!!EED: Helmut Schaffrath
!!!EEV: 1.0
!!!GTL: IV. Lyrische Lieder.
!!!URL-scan: https://www.digitale-sammlungen.de/de/view/bsb11160571?page=490
!!!ENC: Anna Maria Matuszewska
!!!EEV: 2025/01/30
*-	*-
